kora/actions/scalable/text-orientation-sideways.svg

<svg xmlns="http://www.w3.org/2000/svg" style="fill-rule:evenodd;clip-rule:evenodd;stroke-linejoin:round;stroke-miterlimit:2" width="100%" height="100%" version="1.1" viewBox="0 0 16 16" xml:space="preserve">
 <defs>
  <style id="current-color-scheme" type="text/css">
   .ColorScheme-Text { color:#dfdfdf; } .ColorScheme-Highlight { color:#4285f4; } .ColorScheme-NeutralText { color:#ff9800; } .ColorScheme-PositiveText { color:#4caf50; } .ColorScheme-NegativeText { color:#f44336; }
  </style>
 </defs>
 <path style="fill:currentColor;" class="ColorScheme-Text" d="M2,2l0,10l-2,0l3,4l3,-4l-2,0l0,-10l-2,0Zm5,9l0,1l2,0l0,3l-2,0l0,1l5,0c2,0 2,-2.5 2,-2.5c0,0 0,-2.5 -2,-2.5l-5,0Zm3,1l1.5,0c1.5,0 1.5,1.5 1.5,1.5c0,0 0,1.5 -1.5,1.5l-1.5,0l0,-3Zm3,-8.5c0,0 0,-0.5 -0.5,-0.5c-0.5,0 -0.5,0.5 -0.5,0.5l0,3l-1.25,-1.5l-0.75,0l0,-3.5c0,0 0,-0.5 -0.5,-0.5c-0.5,0 -0.5,0.5 -0.5,0.5l0,3.5l-2,0l0,-1.5c0,0 0,-0.5 -0.5,-0.5c-0.5,0 -0.5,0.5 -0.5,0.5l0,1.5c0,0 0,1 1,1l2,0l0,3.5c0,0 0,0.5 0.5,0.5c0.5,0 0.5,-0.5 0.5,-0.5l0,-3.5l0.25,0c0,0 1.25,2 1.75,2c1,0 1,-1 1,-1l0,-3.5Zm3,1c0,-0.5 -0.5,-0.5 -0.5,-0.5l-0.5,0l0,-2.5c0,-0.5 -0.5,-0.5 -0.5,-0.5l-1,0c0,0 -0.5,0 -0.5,0.5c0,0.5 0.5,0.5 0.5,0.5l0.5,0l0,7l-0.5,0c0,0 -0.5,0 -0.5,0.5c0,0.5 0.5,0.5 0.5,0.5l1,0c0,0 0.5,0 0.5,-0.5l0,-4.5l0.5,0c0,0 0.5,0 0.5,-0.5Z"/>
</svg>

<svg xmlns="http://www.w3.org/2000/svg" width="16" height="16" version="1.1">
 <defs>
  <style id="current-color-scheme" type="text/css">
   .ColorScheme-Text { color:#dfdfdf; } .ColorScheme-Highlight { color:#4285f4; }
  </style>
 </defs>
 <path style="fill:currentColor" class="ColorScheme-Text" d="M 2,2 V 12 H 0 L 3,16 6,12 H 4 V 2 Z M 7,11 V 12 H 9 V 15 H 7 V 16 H 12 C 14,16 14,13.5 14,13.5 14,13.5 14,11 12,11 Z M 10,12 H 11.5 C 13,12 13,13.5 13,13.5 13,13.5 13,15 11.5,15 H 10 Z M 13,3.5 C 13,3.5 13,3 12.5,3 12,3 12,3.5 12,3.5 V 6.5 L 10.75,5 H 10 V 1.5 C 10,1.5 10,1 9.5,1 9,1 9,1.5 9,1.5 V 5 H 7 V 3.5 C 7,3.5 7,3 6.5,3 6,3 6,3.5 6,3.5 V 5 C 6,5 6,6 7,6 H 9 V 9.5 C 9,9.5 9,10 9.5,10 10,10 10,9.5 10,9.5 V 6 H 10.25 C 10.25,6 11.5,8 12,8 13,8 13,7 13,7 Z M 16,4.5 C 16,4 15.5,4 15.5,4 H 15 V 1.5 C 15,1 14.5,1 14.5,1 H 13.5 C 13.5,1 13,1 13,1.5 13,2 13.5,2 13.5,2 H 14 V 9 H 13.5 C 13.5,9 13,9 13,9.5 13,10 13.5,10 13.5,10 H 14.5 C 14.5,10 15,10 15,9.5 V 5 H 15.5 C 15.5,5 16,5 16,4.5 Z"/>
</svg>
